apps/48/internet-feed-reader.svg

<?xml version="1.0" encoding="UTF-8" standalone="no"?>
<!-- Created with Inkscape (http://www.inkscape.org/) -->

<svg
   xmlns:svg="http://www.w3.org/2000/svg"
   xmlns="http://www.w3.org/2000/svg"
   xmlns:xlink="http://www.w3.org/1999/xlink"
   version="1.0"
   width="48"
   height="48"
   id="svg9206">
  <defs
     id="defs9208">
    <linearGradient
       id="linearGradient3702">
      <stop
         id="stop3704"
         style="stop-color:black;stop-opacity:0"
         offset="0" />
      <stop
         id="stop3710"
         style="stop-color:black;stop-opacity:1"
         offset="0.5" />
      <stop
         id="stop3706"
         style="stop-color:black;stop-opacity:0"
         offset="1" />
    </linearGradient>
    <linearGradient
       x1="25.058096"
       y1="47.027729"
       x2="25.058096"
       y2="39.999443"
       id="linearGradient2877"
       xlink:href="#linearGradient3702"
       gradientUnits="userSpaceOnUse" />
    <radialGradient
       cx="4.9929786"
       cy="43.5"
       r="2.5"
       fx="4.9929786"
       fy="43.5"
       id="radialGradient2875"
       xlink:href="#linearGradient3688"
       gradientUnits="userSpaceOnUse"
       gradientTransform="matrix(2.003784,0,0,1.4,-20.01187,-104.4)" />
    <linearGradient
       id="linearGradient3688">
      <stop
         id="stop3690"
         style="stop-color:black;stop-opacity:1"
         offset="0" />
      <stop
         id="stop3692"
         style="stop-color:black;stop-opacity:0"
         offset="1" />
    </linearGradient>
    <radialGradient
       cx="4.9929786"
       cy="43.5"
       r="2.5"
       fx="4.9929786"
       fy="43.5"
       id="radialGradient2873"
       xlink:href="#linearGradient3688"
       gradientUnits="userSpaceOnUse"
       gradientTransform="matrix(2.003784,0,0,1.4,27.98813,-17.4)" />
    <linearGradient
       x1="24"
       y1="44"
       x2="24"
       y2="3.8990016"
       id="linearGradient2865"
       xlink:href="#linearGradient2490-113-765"
       gradientUnits="userSpaceOnUse"
       gradientTransform="translate(0,0.9674388)" />
    <linearGradient
       id="linearGradient3839">
      <stop
         id="stop3841"
         style="stop-color:#ffed8c;stop-opacity:1"
         offset="0" />
      <stop
         id="stop3843"
         style="stop-color:#fb9858;stop-opacity:1"
         offset="0.26238" />
      <stop
         id="stop3845"
         style="stop-color:#dc572a;stop-opacity:1"
         offset="0.66093999" />
      <stop
         id="stop3847"
         style="stop-color:#9f3110;stop-opacity:1"
         offset="1" />
    </linearGradient>
    <radialGradient
       cx="12.011247"
       cy="10.290615"
       r="19.99999"
       fx="12.011247"
       fy="10.290615"
       id="radialGradient2863"
       xlink:href="#linearGradient3839"
       gradientUnits="userSpaceOnUse"
       gradientTransform="matrix(5.6341942e-8,1.6800831,-2.423533,1.0380855e-8,44.478401,-5.926735)" />
    <linearGradient
       id="linearGradient3308-4-6">
      <stop
         id="stop3310-1-4"
         style="stop-color:white;stop-opacity:1"
         offset="0" />
      <stop
         id="stop3312-5-3"
         style="stop-color:white;stop-opacity:0"
         offset="1" />
    </linearGradient>
    <linearGradient
       x1="23.99999"
       y1="4.999989"
       x2="23.99999"
       y2="43"
       id="linearGradient2855"
       xlink:href="#linearGradient3308-4-6"
       gradientUnits="userSpaceOnUse"
       gradientTransform="translate(0,0.9674388)" />
    <linearGradient
       x1="10.519157"
       y1="42.466915"
       x2="10.519157"
       y2="0.55679166"
       id="linearGradient9196"
       xlink:href="#linearGradient2490-113-765"
       gradientUnits="userSpaceOnUse"
       gradientTransform="matrix(0.9517158,0,0,0.9526299,2.2295056,4.3723263)" />
    <linearGradient
       x1="33.994793"
       y1="45.463394"
       x2="33.994793"
       y2="6.005178"
       id="linearGradient9204"
       xlink:href="#linearGradient2490-113-765"
       gradientUnits="userSpaceOnUse" />
    <linearGradient
       id="linearGradient2490-113-765">
      <stop
         id="stop3686"
         style="stop-color:#861318;stop-opacity:1"
         offset="0" />
      <stop
         id="stop3688"
         style="stop-color:#f67e2a;stop-opacity:1"
         offset="1" />
    </linearGradient>
    <linearGradient
       x1="10.519157"
       y1="42.466915"
       x2="10.519157"
       y2="0.55679166"
       id="linearGradient8638"
       xlink:href="#linearGradient2490-113-765"
       gradientUnits="userSpaceOnUse"
       gradientTransform="matrix(0.9517158,0,0,0.9526299,2.2295056,4.3723263)" />
  </defs>
  <g
     id="layer1">
    <g
       transform="matrix(1.1,0,0,0.4444449,-2.4000022,25.11107)"
       id="g2036"
       style="display:inline">
      <g
         transform="matrix(1.052632,0,0,1.285713,-1.263158,-13.42854)"
         id="g3712"
         style="opacity:0.4">
        <rect
           width="5"
           height="7"
           x="38"
           y="40"
           id="rect2801"
           style="fill:url(#radialGradient2873);fill-opacity:1;stroke:none" />
        <rect
           width="5"
           height="7"
           x="-10"
           y="-47"
           transform="scale(-1,-1)"
           id="rect3696"
           style="fill:url(#radialGradient2875);fill-opacity:1;stroke:none" />
        <rect
           width="28"
           height="7.0000005"
           x="10"
           y="40"
           id="rect3700"
           style="fill:url(#linearGradient2877);fill-opacity:1;stroke:none" />
      </g>
    </g>
    <rect
       width="39"
       height="39"
       rx="2.2322156"
       ry="2.2322156"
       x="4.5"
       y="5.4674392"
       id="rect5505"
       style="fill:url(#radialGradient2863);fill-opacity:1;stroke:url(#linearGradient2865);stroke-width:1;stroke-linecap:round;stroke-linejoin:round;stroke-miterlimit:4;stroke-opacity:1;stroke-dasharray:none;stroke-dashoffset:0" />
    <rect
       width="36.999985"
       height="37.000011"
       rx="1.365193"
       ry="1.365193"
       x="5.4999981"
       y="6.4674282"
       id="rect6741"
       style="opacity:0.4;fill:none;stroke:url(#linearGradient2855);stroke-width:0.99999976;stroke-linecap:round;stroke-linejoin:round;stroke-miterlimit:4;stroke-opacity:1;stroke-dasharray:none;stroke-dashoffset:0" />
    <path
       d="m 8.96875,11 0,5.28125 c 13.535792,0.252228 24.469954,11.201169 24.71875,24.75 l 5.3125,0 C 38.748843,24.550582 25.43396,11.25086 8.96875,11 z m 0,12.15625 0,4.75 c 7.14454,0.2486 12.87612,5.974288 13.125,13.125 l 4.75,0 c -0.250886,-9.787333 -8.096697,-17.624411 -17.875,-17.875 z m 3.125,12.03125 c -0.837832,2.5e-5 -1.482214,0.294183 -2.0625,0.875 -0.5810697,0.57127 -0.8749996,1.192646 -0.875,2.03125 0,0.825498 0.2959765,1.462035 0.875,2.03125 0.577287,0.567539 1.218248,0.84377 2.0625,0.84375 0.81807,1.9e-5 1.431514,-0.2747 2,-0.84375 0.582125,-0.582667 0.874991,-1.218941 0.875,-2.03125 -9e-6,-0.83861 -0.293931,-1.459982 -0.875,-2.03125 -0.571475,-0.582399 -1.188514,-0.874976 -2,-0.875 z"
       transform="matrix(0.9989594,0,0,0.9989594,0.00933273,-0.9885529)"
       id="path8685"
       style="font-size:13.58991337px;font-style:normal;font-variant:normal;font-weight:bold;font-stretch:normal;text-align:start;line-height:125%;writing-mode:lr-tb;text-anchor:start;fill:url(#linearGradient9204);fill-opacity:1;stroke:url(#linearGradient9196);stroke-width:0;stroke-linecap:round;stroke-linejoin:round;stroke-miterlimit:4;stroke-opacity:1;stroke-dasharray:none;font-family:Bitstream Vera Serif" />
    <path
       d="m 8.96875,11 0,5.28125 c 13.535792,0.252228 24.469954,11.201169 24.71875,24.75 l 5.3125,0 C 38.748843,24.550582 25.43396,11.25086 8.96875,11 z m 0,12.15625 0,4.75 c 7.14454,0.2486 12.87612,5.974288 13.125,13.125 l 4.75,0 c -0.250886,-9.787333 -8.096697,-17.624411 -17.875,-17.875 z m 3.125,12.03125 c -0.837832,2.5e-5 -1.482214,0.294183 -2.0625,0.875 -0.5810697,0.57127 -0.8749996,1.192646 -0.875,2.03125 0,0.825498 0.2959765,1.462035 0.875,2.03125 0.577287,0.567539 1.218248,0.84377 2.0625,0.84375 0.81807,1.9e-5 1.431514,-0.2747 2,-0.84375 0.582125,-0.582667 0.874991,-1.218941 0.875,-2.03125 -9e-6,-0.83861 -0.293931,-1.459982 -0.875,-2.03125 -0.571475,-0.582399 -1.188514,-0.874976 -2,-0.875 z"
       transform="matrix(0.9989594,0,0,0.9989594,0.04058273,0.01144641)"
       id="path8636"
       style="font-size:13.58991337px;font-style:normal;font-variant:normal;font-weight:bold;font-stretch:normal;text-align:start;line-height:125%;writing-mode:lr-tb;text-anchor:start;fill:white;fill-opacity:1;stroke:url(#linearGradient8638);stroke-width:0;stroke-linecap:round;stroke-linejoin:round;stroke-miterlimit:4;stroke-opacity:1;stroke-dasharray:none;font-family:Bitstream Vera Serif" />
  </g>
</svg>

<?xml version="1.0" encoding="UTF-8" standalone="no"?>
<!-- Created with Inkscape (http://www.inkscape.org/) -->
<svg
   xmlns:dc="http://purl.org/dc/elements/1.1/"
   xmlns:cc="http://creativecommons.org/ns#"
   xmlns:rdf="http://www.w3.org/1999/02/22-rdf-syntax-ns#"
   xmlns:svg="http://www.w3.org/2000/svg"
   xmlns="http://www.w3.org/2000/svg"
   xmlns:xlink="http://www.w3.org/1999/xlink"
   xmlns:sodipodi="http://sodipodi.sourceforge.net/DTD/sodipodi-0.dtd"
   xmlns:inkscape="http://www.inkscape.org/namespaces/inkscape"
   version="1.0"
   width="48"
   height="48"
   id="svg9206"
   sodipodi:version="0.32"
   inkscape:version="0.46"
   sodipodi:docname="internet-feed-reader.svg"
   inkscape:output_extension="org.inkscape.output.svg.inkscape">
  <metadata
     id="metadata42">
    <rdf:RDF>
      <cc:Work
         rdf:about="">
        <dc:format>image/svg+xml</dc:format>
        <dc:type
           rdf:resource="http://purl.org/dc/dcmitype/StillImage" />
      </cc:Work>
    </rdf:RDF>
  </metadata>
  <sodipodi:namedview
     inkscape:window-height="711"
     inkscape:window-width="678"
     inkscape:pageshadow="2"
     inkscape:pageopacity="0.0"
     guidetolerance="10.0"
     gridtolerance="10.0"
     objecttolerance="10.0"
     borderopacity="1.0"
     bordercolor="#666666"
     pagecolor="#ffffff"
     id="base"
     showgrid="false"
     inkscape:zoom="4.9166667"
     inkscape:cx="24"
     inkscape:cy="24"
     inkscape:window-x="747"
     inkscape:window-y="57"
     inkscape:current-layer="svg9206" />
  <defs
     id="defs9208">
    <linearGradient
       id="linearGradient3702">
      <stop
         id="stop3704"
         style="stop-color:#000000;stop-opacity:0"
         offset="0" />
      <stop
         id="stop3710"
         style="stop-color:#000000;stop-opacity:1"
         offset="0.5" />
      <stop
         id="stop3706"
         style="stop-color:#000000;stop-opacity:0"
         offset="1" />
    </linearGradient>
    <linearGradient
       x1="25.058096"
       y1="47.027729"
       x2="25.058096"
       y2="39.999443"
       id="linearGradient2877"
       xlink:href="#linearGradient3702"
       gradientUnits="userSpaceOnUse" />
    <radialGradient
       cx="4.9929786"
       cy="43.5"
       r="2.5"
       fx="4.9929786"
       fy="43.5"
       id="radialGradient2875"
       xlink:href="#linearGradient3688"
       gradientUnits="userSpaceOnUse"
       gradientTransform="matrix(2.003784,0,0,1.4,-20.01187,-104.4)" />
    <linearGradient
       id="linearGradient3688">
      <stop
         id="stop3690"
         style="stop-color:#000000;stop-opacity:1"
         offset="0" />
      <stop
         id="stop3692"
         style="stop-color:#000000;stop-opacity:0"
         offset="1" />
    </linearGradient>
    <radialGradient
       cx="4.9929786"
       cy="43.5"
       r="2.5"
       fx="4.9929786"
       fy="43.5"
       id="radialGradient2873"
       xlink:href="#linearGradient3688"
       gradientUnits="userSpaceOnUse"
       gradientTransform="matrix(2.003784,0,0,1.4,27.98813,-17.4)" />
    <linearGradient
       x1="24"
       y1="44"
       x2="24"
       y2="3.8990016"
       id="linearGradient2865"
       xlink:href="#linearGradient2490-113-765"
       gradientUnits="userSpaceOnUse"
       gradientTransform="translate(0,0.9674388)" />
    <linearGradient
       id="linearGradient3839">
      <stop
         id="stop3841"
         style="stop-color:#ffed8c;stop-opacity:1"
         offset="0" />
      <stop
         id="stop3843"
         style="stop-color:#fb9858;stop-opacity:1"
         offset="0.26238" />
      <stop
         id="stop3845"
         style="stop-color:#dc572a;stop-opacity:1"
         offset="0.66093999" />
      <stop
         id="stop3847"
         style="stop-color:#9f3110;stop-opacity:1"
         offset="1" />
    </linearGradient>
    <radialGradient
       cx="12.011247"
       cy="10.290615"
       r="19.99999"
       fx="12.011247"
       fy="10.290615"
       id="radialGradient2863"
       xlink:href="#linearGradient3839"
       gradientUnits="userSpaceOnUse"
       gradientTransform="matrix(5.6341942e-8,1.6800831,-2.423533,1.0380855e-8,44.478401,-5.926735)" />
    <linearGradient
       id="linearGradient3308-4-6">
      <stop
         id="stop3310-1-4"
         style="stop-color:#ffffff;stop-opacity:1"
         offset="0" />
      <stop
         id="stop3312-5-3"
         style="stop-color:#ffffff;stop-opacity:0"
         offset="1" />
    </linearGradient>
    <linearGradient
       x1="23.99999"
       y1="4.999989"
       x2="23.99999"
       y2="43"
       id="linearGradient2855"
       xlink:href="#linearGradient3308-4-6"
       gradientUnits="userSpaceOnUse"
       gradientTransform="translate(0,0.9674388)" />
    <linearGradient
       x1="10.519157"
       y1="42.466915"
       x2="10.519157"
       y2="0.55679166"
       id="linearGradient9196"
       xlink:href="#linearGradient2490-113-765"
       gradientUnits="userSpaceOnUse"
       gradientTransform="matrix(0.9517158,0,0,0.9526299,2.2295056,4.3723263)" />
    <linearGradient
       x1="33.994793"
       y1="45.463394"
       x2="33.994793"
       y2="6.005178"
       id="linearGradient9204"
       xlink:href="#linearGradient2490-113-765"
       gradientUnits="userSpaceOnUse" />
    <linearGradient
       id="linearGradient2490-113-765">
      <stop
         id="stop3686"
         style="stop-color:#861318;stop-opacity:1"
         offset="0" />
      <stop
         id="stop3688"
         style="stop-color:#f67e2a;stop-opacity:1"
         offset="1" />
    </linearGradient>
    <linearGradient
       x1="10.519157"
       y1="42.466915"
       x2="10.519157"
       y2="0.55679166"
       id="linearGradient8638"
       xlink:href="#linearGradient2490-113-765"
       gradientUnits="userSpaceOnUse"
       gradientTransform="matrix(0.9517158,0,0,0.9526299,2.2295056,4.3723263)" />
  </defs>
  <g
     id="layer1">
    <g
       transform="matrix(1.1,0,0,0.4444449,-2.4000022,25.11107)"
       id="g2036"
       style="display:inline">
      <g
         transform="matrix(1.052632,0,0,1.285713,-1.263158,-13.42854)"
         id="g3712"
         style="opacity:0.4">
        <rect
           width="5"
           height="7"
           x="38"
           y="40"
           id="rect2801"
           style="fill:url(#radialGradient2873);fill-opacity:1;stroke:none" />
        <rect
           width="5"
           height="7"
           x="-10"
           y="-47"
           transform="scale(-1,-1)"
           id="rect3696"
           style="fill:url(#radialGradient2875);fill-opacity:1;stroke:none" />
        <rect
           width="28"
           height="7.0000005"
           x="10"
           y="40"
           id="rect3700"
           style="fill:url(#linearGradient2877);fill-opacity:1;stroke:none" />
      </g>
    </g>
    <rect
       width="39"
       height="39"
       rx="2.2322156"
       ry="2.2322156"
       x="4.5"
       y="5.4674392"
       id="rect5505"
       style="fill:url(#radialGradient2863);fill-opacity:1;stroke:url(#linearGradient2865);stroke-width:1;stroke-linecap:round;stroke-linejoin:round;stroke-miterlimit:4;stroke-dasharray:none;stroke-dashoffset:0;stroke-opacity:1" />
    <rect
       width="36.999985"
       height="37.000011"
       rx="1.365193"
       ry="1.365193"
       x="5.4999981"
       y="6.4674282"
       id="rect6741"
       style="opacity:0.4;fill:none;stroke:url(#linearGradient2855);stroke-width:0.99999976;stroke-linecap:round;stroke-linejoin:round;stroke-miterlimit:4;stroke-dasharray:none;stroke-dashoffset:0;stroke-opacity:1" />
    <path
       d="M 8.96875,11 L 8.96875,16.28125 C 22.504542,16.533478 33.438704,27.482419 33.6875,41.03125 L 39,41.03125 C 38.748843,24.550582 25.43396,11.25086 8.96875,11 z M 8.96875,23.15625 L 8.96875,27.90625 C 16.11329,28.15485 21.84487,33.880538 22.09375,41.03125 L 26.84375,41.03125 C 26.592864,31.243917 18.747053,23.406839 8.96875,23.15625 z M 12.09375,35.1875 C 11.255918,35.187525 10.611536,35.481683 10.03125,36.0625 C 9.4501803,36.63377 9.1562504,37.255146 9.15625,38.09375 C 9.15625,38.919248 9.4522265,39.555785 10.03125,40.125 C 10.608537,40.692539 11.249498,40.96877 12.09375,40.96875 C 12.91182,40.968769 13.525264,40.69405 14.09375,40.125 C 14.675875,39.542333 14.968741,38.906059 14.96875,38.09375 C 14.968741,37.25514 14.674819,36.633768 14.09375,36.0625 C 13.522275,35.480101 12.905236,35.187524 12.09375,35.1875 z"
       transform="matrix(0.9989594,0,0,0.9989594,9.3327263e-3,-0.9885529)"
       id="path8685"
       style="font-size:13.58991337px;font-style:normal;font-variant:normal;font-weight:bold;font-stretch:normal;text-align:start;line-height:125%;writing-mode:lr-tb;text-anchor:start;opacity:1;fill:url(#linearGradient9204);fill-opacity:1;stroke:url(#linearGradient9196);stroke-width:0;stroke-linecap:round;stroke-linejoin:round;stroke-miterlimit:4;stroke-dasharray:none;stroke-opacity:1;font-family:Bitstream Vera Serif" />
    <path
       d="M 8.96875,11 L 8.96875,16.28125 C 22.504542,16.533478 33.438704,27.482419 33.6875,41.03125 L 39,41.03125 C 38.748843,24.550582 25.43396,11.25086 8.96875,11 z M 8.96875,23.15625 L 8.96875,27.90625 C 16.11329,28.15485 21.84487,33.880538 22.09375,41.03125 L 26.84375,41.03125 C 26.592864,31.243917 18.747053,23.406839 8.96875,23.15625 z M 12.09375,35.1875 C 11.255918,35.187525 10.611536,35.481683 10.03125,36.0625 C 9.4501803,36.63377 9.1562504,37.255146 9.15625,38.09375 C 9.15625,38.919248 9.4522265,39.555785 10.03125,40.125 C 10.608537,40.692539 11.249498,40.96877 12.09375,40.96875 C 12.91182,40.968769 13.525264,40.69405 14.09375,40.125 C 14.675875,39.542333 14.968741,38.906059 14.96875,38.09375 C 14.968741,37.25514 14.674819,36.633768 14.09375,36.0625 C 13.522275,35.480101 12.905236,35.187524 12.09375,35.1875 z"
       transform="matrix(0.9989594,0,0,0.9989594,4.0582726e-2,1.144641e-2)"
       id="path8636"
       style="font-size:13.58991337px;font-style:normal;font-variant:normal;font-weight:bold;font-stretch:normal;text-align:start;line-height:125%;writing-mode:lr-tb;text-anchor:start;fill:#ffffff;fill-opacity:1;stroke:url(#linearGradient8638);stroke-width:0;stroke-linecap:round;stroke-linejoin:round;stroke-miterlimit:4;stroke-dasharray:none;stroke-opacity:1;font-family:Bitstream Vera Serif" />
  </g>
</svg>
